; generated by PrusaSlicer 2.0.0+win64 on 2019-07-20 at 11:18:15

; 

; external perimeters extrusion width = 0.60mm
; perimeters extrusion width = 0.50mm
; infill extrusion width = 0.50mm
; solid infill extrusion width = 0.50mm
; top infill extrusion width = 0.45mm
; first layer extrusion width = 0.42mm

M73 P0 R116
M73 Q0 S117
M201 X1000 Y1000 Z1000 E5000 ; sets maximum accelerations, mm/sec^2
M203 X200 Y200 Z12 E120 ; sets maximum feedrates, mm/sec
M204 P1250 R1250 T1250 ; sets acceleration (P, T) and retract acceleration (R), mm/sec^2
M205 X8.00 Y8.00 Z0.40 E1.50 ; sets the jerk limits, mm/sec
M205 S0 T0 ; sets the minimum extruding and travel feed rate, mm/sec
M107
M115 U3.7.2 ; tell printer latest fw version
G90 ; use absolute coordinates
M83 ; extruder relative mode
M104 S215 ; set extruder temp
M140 S60 ; set bed temp
M190 S60 ; wait for bed temp
M109 S215 ; wait for extruder temp
G28 W ; home all without mesh bed level
G80 ; mesh bed leveling
G1 Y-3.0 F1000.0 ; go outside print area
G92 E0.0
G1 X60.0 E9.0 F1000.0 ; intro line
M73 Q0 S117
M73 P0 R116
G1 X100.0 E12.5 F1000.0 ; intro line
G92 E0.0
M221 S95
M900 K30 ; Filament gcode
G21 ; set units to millimeters
G90 ; use absolute coordinates
M83 ; use relative distances for extrusion
;BEFORE_LAYER_CHANGE
G92 E0.0
;0.2


G1 E-0.80000 F2100.00000
G1 Z0.600 F10800.000
;AFTER_LAYER_CHANGE
;0.2
G1 X73.560 Y31.747
G1 Z0.200
G1 E0.80000 F2100.00000
M204 S1000
G1 F1200
G1 X74.550 Y31.038 E0.03818
G1 X75.680 Y30.584 E0.03818
G1 X76.886 Y30.411 E0.03818
G1 X173.006 Y30.409 E3.01378
G1 X173.980 Y30.505 E0.03071
G1 X174.919 Y30.785 E0.03071
G1 X175.782 Y31.237 E0.03054
G1 X176.547 Y31.848 E0.03071
G1 X177.181 Y32.595 E0.03071
G1 X177.660 Y33.450 E0.03071
G1 X177.966 Y34.380 E0.03071
G1 X178.088 Y35.352 E0.03071
G1 X178.090 Y174.528 E4.36376
G1 X178.033 Y175.266 E0.02322
G1 X177.868 Y175.989 E0.02322
G1 X177.601 Y176.679 E0.02322
G1 X177.236 Y177.324 E0.02322
G1 X176.436 Y178.256 E0.03853
G1 X175.430 Y178.973 E0.03870
G1 X174.288 Y179.425 E0.03853
G1 X173.070 Y179.590 E0.03853
G1 X76.955 Y179.590 E3.01360
G1 X76.223 Y179.531 E0.02305
G1 X75.506 Y179.366 E0.02305
G1 X74.821 Y179.101 E0.02305
G1 X74.176 Y178.736 E0.02322
G1 X73.240 Y177.931 E0.03870
G1 X72.524 Y176.925 E0.03870
G1 X72.072 Y175.777 E0.03870
G1 X71.910 Y174.548 E0.03888
G1 X71.910 Y35.472 E4.36061
G1 X71.967 Y34.734 E0.02322
G1 X72.132 Y34.011 E0.02322
G1 X72.399 Y33.321 E0.02322
G1 X72.764 Y32.676 E0.02322
G1 X73.521 Y31.793 E0.03648
G1 X74.432 Y31.504 F10800.000
G1 F1200
G1 X75.267 Y31.085 E0.02931
G1 X76.490 Y30.787 E0.03948
G1 X173.486 Y30.790 E3.04123
G1 X174.435 Y30.974 E0.03029
G1 X175.343 Y31.365 E0.03101
G1 X176.562 Y32.388 E0.04990
G1 X177.353 Y33.606 E0.04551
G1 X177.713 Y34.989 E0.04481
G1 X177.713 Y175.010 E4.39026
G1 X177.415 Y176.233 E0.03948
G1 X176.996 Y177.068 E0.02931
G1 X175.568 Y178.496 E0.06329
G1 X174.733 Y178.915 E0.02931
G1 X173.510 Y179.213 E0.03948
G1 X76.490 Y179.213 E3.04197
G1 X75.267 Y178.915 E0.03948
G1 X74.432 Y178.496 E0.02931
G1 X73.004 Y177.068 E0.06329
G1 X72.585 Y176.233 E0.02931
G1 X72.287 Y175.010 E0.03948
G1 X72.287 Y34.990 E4.39021
G1 X72.585 Y33.767 E0.03948
G1 X73.004 Y32.932 E0.02931
G1 X74.389 Y31.547 E0.06141
G1 X74.629 Y31.827 F10800.000
G1 F1200
G1 X75.380 Y31.445 E0.02639
G1 X76.514 Y31.164 E0.03664
G1 X173.467 Y31.167 E3.03991
G1 X174.341 Y31.340 E0.02791
G1 X175.166 Y31.699 E0.02823
G1 X176.297 Y32.658 E0.04647
G1 X176.996 Y33.732 E0.04018
G1 X177.336 Y35.013 E0.04157
G1 X177.336 Y174.986 E4.38875
M73 Q0 S116
M73 P0 R115
G1 X177.055 Y176.120 E0.03664
G1 X176.673 Y176.871 E0.02639
G1 X175.371 Y178.173 E0.05777
G1 X174.620 Y178.555 E0.02639
G1 X173.486 Y178.836 E0.03664
G1 X76.514 Y178.836 E3.04050
G1 X75.380 Y178.555 E0.03664
G1 X74.629 Y178.173 E0.02639
G1 X73.327 Y176.871 E0.05777
G1 X72.945 Y176.120 E0.02639
G1 X72.664 Y174.986 E0.03664
G1 X72.664 Y35.014 E4.38874
G1 X72.945 Y33.880 E0.03664
G1 X73.327 Y33.129 E0.02639
G1 X74.587 Y31.869 E0.05588
G1 X74.828 Y32.148 F10800.000
G1 F1200
G1 X75.494 Y31.805 E0.02348
G1 X76.538 Y31.541 E0.03376
G1 X173.448 Y31.544 E3.03856
G1 X174.246 Y31.705 E0.02550
G1 X174.988 Y32.033 E0.02545
G1 X176.030 Y32.926 E0.04302
G1 X176.663 Y33.910 E0.03669
G1 X176.959 Y35.038 E0.03655
G1 X176.959 Y174.962 E4.38724
G1 X176.695 Y176.006 E0.03376
G1 X176.352 Y176.672 E0.02348
G1 X175.172 Y177.852 E0.05234
G1 X174.506 Y178.195 E0.02348
G1 X173.462 Y178.459 E0.03376
G1 X76.538 Y178.459 E3.03900
G1 X75.494 Y178.195 E0.03376
G1 X74.828 Y177.852 E0.02348
G1 X73.648 Y176.672 E0.05234
G1 X73.305 Y176.006 E0.02348
G1 X73.041 Y174.962 E0.03376
G1 X73.041 Y35.038 E4.38724
G1 X73.305 Y33.994 E0.03376
G1 X73.648 Y33.328 E0.02348
G1 X74.786 Y32.190 E0.05045
G1 X75.029 Y32.469 F10800.000
G1 F1200
G1 X75.611 Y32.165 E0.02058
G1 X76.562 Y31.918 E0.03083
G1 X173.429 Y31.921 E3.03718
G1 X174.148 Y32.070 E0.02304
G1 X174.808 Y32.365 E0.02266
G1 X175.762 Y33.192 E0.03960
G1 X176.306 Y34.037 E0.03149
G1 X176.582 Y35.063 E0.03331
G1 X176.582 Y174.938 E4.38568
G1 X176.335 Y175.889 E0.03083
G1 X176.031 Y176.471 E0.02058
G1 X174.971 Y177.531 E0.04702
G1 X174.389 Y177.835 E0.02058
G1 X173.438 Y178.082 E0.03083
G1 X76.562 Y178.082 E3.03747
G1 X75.611 Y177.835 E0.03083
G1 X75.029 Y177.531 E0.02058
G1 X73.969 Y176.471 E0.04702
G1 X73.665 Y175.889 E0.02058
G1 X73.418 Y174.938 E0.03083
G1 X73.418 Y35.062 E4.38570
M73 Q1 S115
M73 P1 R114
G1 X73.665 Y34.111 E0.03083
G1 X73.969 Y33.529 E0.02058
G1 X74.986 Y32.511 E0.04513
G1 X75.231 Y32.788 F10800.000
G1 F1200
G1 X75.729 Y32.523 E0.01770
G1 X76.587 Y32.295 E0.02783
G1 X173.410 Y32.298 E3.03579
G1 X174.013 Y32.423 E0.01933
G1 X174.628 Y32.697 E0.02110
G1 X175.492 Y33.457 E0.03609
G1 X175.972 Y34.214 E0.02809
G1 X176.205 Y35.087 E0.02835
G1 X176.205 Y174.913 E4.38413
G1 X175.977 Y175.771 E0.02783
G1 X175.712 Y176.269 E0.01770
G1 X174.769 Y177.212 E0.04182
G1 X174.271 Y177.477 E0.01770
G1 X173.413 Y177.705 E0.02783
G1 X76.587 Y177.705 E3.03589
G1 X75.729 Y177.477 E0.02783
G1 X75.231 Y177.212 E0.01770
G1 X74.288 Y176.269 E0.04182
G1 X74.023 Y175.771 E0.01770
G1 X73.795 Y174.913 E0.02783
G1 X73.795 Y35.087 E4.38413
G1 X74.023 Y34.229 E0.02783
G1 X74.288 Y33.731 E0.01770
G1 X75.189 Y32.830 E0.03994
G1 X75.435 Y33.106 F10800.000
G1 F1200
G1 X75.851 Y32.880 E0.01483
G1 X76.613 Y32.672 E0.02477
G1 X173.389 Y32.676 E3.03434
G1 X173.914 Y32.787 E0.01681
G1 X174.445 Y33.028 E0.01829
G1 X175.222 Y33.721 E0.03263
G1 X175.616 Y34.341 E0.02306
G1 X175.828 Y35.113 E0.02510
G1 X175.828 Y174.887 E4.38250
G1 X175.620 Y175.649 E0.02477
G1 X175.394 Y176.065 E0.01483
G1 X174.565 Y176.894 E0.03678
G1 X174.149 Y177.120 E0.01483
G1 X173.387 Y177.328 E0.02477
G1 X76.613 Y177.328 E3.03427
G1 X75.851 Y177.120 E0.02477
G1 X75.435 Y176.894 E0.01483
G1 X74.606 Y176.065 E0.03678
G1 X74.380 Y175.649 E0.01483
G1 X74.172 Y174.887 E0.02477
G1 X74.172 Y35.113 E4.38250
G1 X74.380 Y34.351 E0.02477
G1 X74.606 Y33.935 E0.01483
G1 X75.393 Y33.148 E0.03489
G1 X75.642 Y33.422 F10800.000
G1 F1200
G1 X75.976 Y33.237 E0.01200
G1 X76.640 Y33.049 E0.02163
G1 X173.368 Y33.053 E3.03284
G1 X173.811 Y33.150 E0.01424
G1 X174.259 Y33.358 E0.01548
G1 X174.950 Y33.983 E0.02920
G1 X175.262 Y34.471 E0.01818
G1 X175.451 Y35.140 E0.02179
G1 X175.451 Y174.860 E4.38082
M73 Q2 S114
M73 P2 R113
G1 X175.263 Y175.524 E0.02162
G1 X175.078 Y175.858 E0.01200
G1 X174.358 Y176.578 E0.03191
G1 X174.024 Y176.763 E0.01200
G1 X173.360 Y176.951 E0.02162
G1 X76.640 Y176.951 E3.03259
G1 X75.976 Y176.763 E0.02162
G1 X75.642 Y176.578 E0.01200
G1 X74.922 Y175.858 E0.03191
G1 X74.737 Y175.524 E0.01200
G1 X74.549 Y174.860 E0.02162
G1 X74.549 Y35.140 E4.38082
G1 X74.737 Y34.476 E0.02162
G1 X74.922 Y34.142 E0.01200
G1 X75.599 Y33.465 E0.03003
G1 F8640
G1 X75.976 Y33.237 E-0.10173
G1 X76.640 Y33.049 E-0.15926
G1 X78.801 Y33.049 E-0.49901
G1 E-0.04000 F2100.00000
G1 Z0.800 F10800.000
G1 X76.668 Y33.426
G1 Z0.200
G1 E0.80000 F2100.00000
G1 F1200
G1 X173.346 Y33.430 E3.03126
G1 X173.705 Y33.513 E0.01157
G1 X174.071 Y33.685 E0.01268
G1 X174.676 Y34.243 E0.02580
G1 X174.908 Y34.605 E0.01347
G1 X175.074 Y35.168 E0.01841
G1 X175.074 Y174.832 E4.37906
G1 X174.909 Y175.394 E0.01838
G1 X174.763 Y175.649 E0.00919
G1 X174.149 Y176.263 E0.02726
G1 X173.894 Y176.409 E0.00919
G1 X173.332 Y176.574 E0.01838
G1 X76.668 Y176.574 E3.03083
G1 X76.106 Y176.409 E0.01838
G1 X75.851 Y176.263 E0.00919
G1 X75.237 Y175.649 E0.02726
G1 X75.091 Y175.394 E0.00919
G1 X74.926 Y174.832 E0.01838
G1 X74.926 Y35.168 E4.37906
G1 X75.091 Y34.606 E0.01838
G1 X75.237 Y34.351 E0.00919
G1 X75.851 Y33.737 E0.02726
G1 X76.106 Y33.591 E0.00919
G1 X76.611 Y33.443 E0.01650
G1 X76.698 Y33.803 F10800.000
G1 F1200
G1 X173.324 Y33.807 E3.02965
G1 X173.562 Y33.862 E0.00767
G1 X173.882 Y34.013 E0.01109
G1 X174.401 Y34.501 E0.02233
G1 X174.556 Y34.742 E0.00898
G1 X174.697 Y35.198 E0.01495
G1 X174.697 Y174.802 E4.37721
G1 X174.556 Y175.259 E0.01500
G1 X174.452 Y175.436 E0.00641
G1 X173.936 Y175.952 E0.02289
G1 X173.759 Y176.056 E0.00641
G1 X173.302 Y176.197 E0.01500
G1 X76.698 Y176.197 E3.02897
G1 X76.241 Y176.056 E0.01500
G1 X76.064 Y175.952 E0.00641
G1 X75.548 Y175.436 E0.02289
G1 X75.444 Y175.259 E0.00641
G1 X75.303 Y174.802 E0.01500
G1 X75.303 Y35.198 E4.37721
M73 Q3 S113
M73 P3 R112
G1 X75.444 Y34.741 E0.01500
G1 X75.548 Y34.564 E0.00641
G1 X76.064 Y34.048 E0.02289
G1 X76.241 Y33.944 E0.00641
G1 X76.640 Y33.821 E0.01312
G1 X76.383 Y34.294 F10800.000
G1 F1200
G1 X76.729 Y34.180 E0.01144
G1 X173.302 Y34.184 E3.02796
G1 X173.419 Y34.211 E0.00377
G1 X173.692 Y34.340 E0.00947
G1 X174.123 Y34.757 E0.01880
G1 X174.207 Y34.885 E0.00479
G1 X174.320 Y35.229 E0.01136
G1 X174.320 Y174.771 E4.37522
G1 X174.206 Y175.117 E0.01144
G1 X174.144 Y175.217 E0.00369
G1 X173.717 Y175.644 E0.01893
G1 X173.617 Y175.706 E0.00369
G1 X173.271 Y175.820 E0.01144
G1 X76.729 Y175.820 E3.02699
G1 X76.383 Y175.706 E0.01144
G1 X76.283 Y175.644 E0.00369
G1 X75.856 Y175.217 E0.01893
G1 X75.794 Y175.117 E0.00369
G1 X75.680 Y174.771 E0.01144
G1 X75.680 Y35.229 E4.37522
G1 X75.794 Y34.883 E0.01144
G1 X75.856 Y34.783 E0.00369
G1 X76.332 Y34.326 E0.02069
G1 X76.537 Y34.639 F10800.000
G1 F1200
G1 X76.764 Y34.557 E0.00757
G1 X173.250 Y34.557 E3.02523
G1 X173.500 Y34.667 E0.00856
G1 X173.843 Y35.010 E0.01522
G1 X173.943 Y35.264 E0.00856
G1 X173.943 Y174.736 E4.37302
G1 X173.843 Y174.990 E0.00856
G1 X173.490 Y175.343 E0.01566
G1 X173.236 Y175.443 E0.00856
G1 X76.764 Y175.443 E3.02479
G1 X76.510 Y175.343 E0.00856
G1 X76.157 Y174.990 E0.01566
G1 X76.057 Y174.736 E0.00856
G1 X76.057 Y35.264 E4.37302
G1 X76.157 Y35.010 E0.00856
G1 X76.491 Y34.676 E0.01480
G1 X76.737 Y34.963 F10800.000
G1 F1200
G1 X76.806 Y34.934 E0.00235
G1 X173.194 Y34.934 E3.02216
G1 X173.263 Y34.963 E0.00235
G1 X173.537 Y35.237 E0.01215
G1 X173.566 Y35.306 E0.00235
G1 X173.566 Y174.694 E4.37039
G1 X173.537 Y174.763 E0.00235
G1 X173.263 Y175.037 E0.01215
G1 X173.194 Y175.066 E0.00235
G1 X76.806 Y175.066 E3.02216
M73 Q4 S112
M73 P4 R111
G1 X76.737 Y175.037 E0.00235
G1 X76.463 Y174.763 E0.01215
G1 X76.434 Y174.694 E0.00235
G1 X76.434 Y35.306 E4.37039
G1 X76.463 Y35.237 E0.00235
G1 X76.695 Y35.006 E0.01027
G1 X76.922 Y35.311 F10800.000
G1 F1200
G1 X173.078 Y35.311 E3.01491
G1 X173.189 Y35.422 E0.00490
G1 X173.189 Y174.578 E4.36314
G1 X173.078 Y174.689 E0.00490
G1 X76.922 Y174.689 E3.01491
G1 X76.811 Y174.578 E0.00490
G1 X76.811 Y35.422 E4.36314
G1 X76.879 Y35.354 E0.00302
G1 X77.210 Y35.710 F10800.000
G1 F1200
G1 X172.790 Y35.710 E2.99684
G1 X172.790 Y174.290 E4.34508
G1 X77.210 Y174.290 E2.99684
G1 X77.210 Y35.770 E4.34320
G1 X77.589 Y35.837 F10800.000
G1 X77.587 Y36.087
G1 F1200
G1 X172.413 Y36.087 E2.97320
G1 X172.413 Y173.913 E4.32143
M73 Q5 S111
M73 P5 R110
G1 X77.587 Y173.913 E2.97320
G1 X77.587 Y36.147 E4.31955
G1 F8640
G1 X80.879 Y36.145 E-0.76000
G1 E-0.04000 F2100.00000
G1 Z0.800 F10800.000
G1 X81.995 Y167.140
G1 Z0.200
G1 E0.80000 F2100.00000
G1 F1200
G1 X82.410 Y167.175 E0.01305
G1 X82.807 Y167.282 E0.01291
G1 X83.180 Y167.455 E0.01290
G1 X83.517 Y167.692 E0.01290
G1 X83.808 Y167.983 E0.01290
G1 X84.045 Y168.320 E0.01290
G1 X84.218 Y168.693 E0.01290
G1 X84.325 Y169.090 E0.01290
G1 X84.361 Y169.500 E0.01290
G1 X84.325 Y169.910 E0.01290
G1 X84.218 Y170.307 E0.01290
G1 X84.045 Y170.680 E0.01290
G1 X83.808 Y171.017 E0.01290
G1 X83.517 Y171.308 E0.01290
G1 X83.180 Y171.545 E0.01290
G1 X82.807 Y171.718 E0.01290
G1 X82.410 Y171.825 E0.01290
G1 X82.000 Y171.861 E0.01290
G1 X81.590 Y171.825 E0.01290
G1 X81.193 Y171.718 E0.01290
G1 X80.820 Y171.545 E0.01290
G1 X80.483 Y171.308 E0.01290
G1 X80.192 Y171.017 E0.01290
G1 X79.955 Y170.680 E0.01290
G1 X79.782 Y170.307 E0.01290
G1 X79.675 Y169.910 E0.01290
G1 X79.639 Y169.500 E0.01290
G1 X79.675 Y169.090 E0.01290
G1 X79.782 Y168.693 E0.01290
G1 X79.955 Y168.320 E0.01290
G1 X80.192 Y167.983 E0.01290
G1 X80.483 Y167.692 E0.01290
G1 X80.820 Y167.455 E0.01290
G1 X81.193 Y167.282 E0.01290
G1 X81.590 Y167.175 E0.01290
G1 X81.935 Y167.145 E0.01087
G1 X82.195 Y166.793 F10800.000
G1 X81.995 Y166.761
G1 F1200
G1 X82.475 Y166.802 E0.01512
G1 X82.937 Y166.926 E0.01499
G1 X83.370 Y167.128 E0.01497
G1 X83.761 Y167.402 E0.01497
G1 X84.098 Y167.739 E0.01497
G1 X84.372 Y168.130 E0.01497
G1 X84.574 Y168.563 E0.01497
G1 X84.698 Y169.024 E0.01497
G1 X84.739 Y169.500 E0.01497
G1 X84.698 Y169.976 E0.01497
G1 X84.574 Y170.437 E0.01497
G1 X84.372 Y170.870 E0.01497
G1 X84.098 Y171.261 E0.01497
G1 X83.761 Y171.598 E0.01497
G1 X83.370 Y171.872 E0.01497
G1 X82.937 Y172.074 E0.01497
G1 X82.476 Y172.198 E0.01497
G1 X82.000 Y172.239 E0.01497
G1 X81.524 Y172.198 E0.01497
G1 X81.063 Y172.074 E0.01497
G1 X80.630 Y171.872 E0.01497
G1 X80.239 Y171.598 E0.01497
G1 X79.902 Y171.261 E0.01497
G1 X79.628 Y170.870 E0.01497
G1 X79.426 Y170.437 E0.01497
G1 X79.302 Y169.976 E0.01497
G1 X79.261 Y169.500 E0.01497
G1 X79.302 Y169.024 E0.01497
G1 X79.426 Y168.563 E0.01497
G1 X79.628 Y168.130 E0.01497
G1 X79.902 Y167.739 E0.01497
G1 X80.239 Y167.402 E0.01497
G1 X80.630 Y167.128 E0.01497
G1 X81.063 Y166.926 E0.01497
G1 X81.524 Y166.802 E0.01497
G1 X81.935 Y166.766 E0.01292
G1 F8640
G1 X82.475 Y166.802 E-0.12499
G1 X82.937 Y166.926 E-0.11040
G1 X83.370 Y167.128 E-0.11025
G1 X83.761 Y167.402 E-0.11025
G1 X84.098 Y167.739 E-0.11026
G1 X84.372 Y168.130 E-0.11025
G1 X84.525 Y168.458 E-0.08359
G1 E-0.04000 F2100.00000
G1 Z0.800 F10800.000
G1 X82.790 Y156.710
G1 Z0.200
G1 E0.80000 F2100.00000
G1 F1200
G1 X82.790 Y149.290 E0.23265
G1 X86.210 Y149.290 E0.10723
G1 X86.210 Y156.710 E0.23265
G1 X82.850 Y156.710 E0.10535
G1 X82.418 Y156.858 F10800.000
G1 F8640
G1 X82.823 Y153.419 E-0.76000
G1 E-0.04000 F2100.00000
G1 Z0.800 F10800.000
G1 X82.413 Y148.913
G1 Z0.200
G1 E0.80000 F2100.00000
G1 F1200
G1 X86.587 Y148.913 E0.13088
G1 X86.587 Y157.087 E0.25629
G1 X82.413 Y157.087 E0.13088
G1 X82.413 Y148.973 E0.25441
G1 F8640
G1 X85.704 Y148.926 E-0.76000
G1 E-0.04000 F2100.00000
G1 Z0.800 F10800.000
G1 X82.179 Y146.295
G1 Z0.200
G1 E0.80000 F2100.00000
G1 F1200
G1 X82.000 Y146.311 E0.00562
G1 X81.686 Y146.283 E0.00990
G1 X81.381 Y146.202 E0.00990
G1 X81.095 Y146.068 E0.00990
G1 X80.836 Y145.887 E0.00990
G1 X80.613 Y145.664 E0.00990
G1 X80.432 Y145.405 E0.00990
G1 X80.303 Y145.128 E0.00959
G1 X80.217 Y144.815 E0.01018
G1 X80.189 Y144.500 E0.00992
G1 X80.217 Y144.186 E0.00990
G1 X80.298 Y143.881 E0.00990
G1 X80.432 Y143.595 E0.00990
G1 X80.613 Y143.336 E0.00990
G1 X80.836 Y143.113 E0.00990
G1 X81.095 Y142.932 E0.00990
G1 X81.381 Y142.798 E0.00990
G1 X81.686 Y142.717 E0.00990
G1 X81.990 Y142.690 E0.00959
G1 X82.314 Y142.717 E0.01018
G1 X82.619 Y142.798 E0.00992
G1 X82.905 Y142.932 E0.00990
G1 X83.164 Y143.113 E0.00990
G1 X83.387 Y143.336 E0.00990
G1 X83.563 Y143.586 E0.00959
G1 X83.701 Y143.880 E0.01018
G1 X83.783 Y144.186 E0.00992
G1 X83.811 Y144.500 E0.00990
G1 X83.783 Y144.814 E0.00990
G1 X83.702 Y145.119 E0.00990
G1 X83.568 Y145.405 E0.00990
G1 X83.387 Y145.664 E0.00990
G1 X83.164 Y145.887 E0.00990
G1 X82.905 Y146.068 E0.00990
G1 X82.619 Y146.202 E0.00990
G1 X82.238 Y146.290 E0.01226
G1 X82.115 Y146.463 F10800.000
G1 X82.380 Y146.656
