; generated by PrusaSlicer 2.0.0+win64 on 2019-07-20 at 13:36:40

; 

; external perimeters extrusion width = 0.60mm
; perimeters extrusion width = 0.50mm
; infill extrusion width = 0.50mm
; solid infill extrusion width = 0.50mm
; top infill extrusion width = 0.45mm
; first layer extrusion width = 0.42mm

M73 P0 R84
M73 Q0 S85
M201 X1000 Y1000 Z1000 E5000 ; sets maximum accelerations, mm/sec^2
M203 X200 Y200 Z12 E120 ; sets maximum feedrates, mm/sec
M204 P1250 R1250 T1250 ; sets acceleration (P, T) and retract acceleration (R), mm/sec^2
M205 X8.00 Y8.00 Z0.40 E1.50 ; sets the jerk limits, mm/sec
M205 S0 T0 ; sets the minimum extruding and travel feed rate, mm/sec
M107
M115 U3.7.2 ; tell printer latest fw version
G90 ; use absolute coordinates
M83 ; extruder relative mode
M104 S215 ; set extruder temp
M140 S60 ; set bed temp
M190 S60 ; wait for bed temp
M109 S215 ; wait for extruder temp
G28 W ; home all without mesh bed level
G80 ; mesh bed leveling
G1 Y-3.0 F1000.0 ; go outside print area
G92 E0.0
G1 X60.0 E9.0 F1000.0 ; intro line
M73 Q0 S85
M73 P0 R84
G1 X100.0 E12.5 F1000.0 ; intro line
G92 E0.0
M221 S95
M900 K30 ; Filament gcode
G21 ; set units to millimeters
G90 ; use absolute coordinates
M83 ; use relative distances for extrusion
;BEFORE_LAYER_CHANGE
G92 E0.0
;0.2


G1 E-0.80000 F2100.00000
G1 Z0.600 F10800.000
;AFTER_LAYER_CHANGE
;0.2
G1 X73.758 Y41.325
G1 Z0.200
G1 E0.80000 F2100.00000
M204 S1000
G1 F1200
G1 X74.708 Y40.705 E0.03558
G1 X75.772 Y40.310 E0.03558
G1 X76.897 Y40.160 E0.03558
G1 X173.006 Y40.159 E3.01343
G1 X173.975 Y40.254 E0.03054
G1 X174.914 Y40.533 E0.03071
G1 X175.782 Y40.987 E0.03071
G1 X176.543 Y41.595 E0.03054
G1 X177.177 Y42.341 E0.03071
G1 X177.655 Y43.190 E0.03054
G1 X177.963 Y44.119 E0.03071
G1 X178.088 Y45.091 E0.03071
G1 X178.090 Y164.795 E3.75322
G1 X178.016 Y165.615 E0.02584
G1 X177.811 Y166.413 E0.02584
G1 X177.480 Y167.168 E0.02584
G1 X177.031 Y167.859 E0.02584
G1 X176.233 Y168.682 E0.03593
G1 X175.267 Y169.308 E0.03610
G1 X174.185 Y169.701 E0.03610
G1 X173.048 Y169.840 E0.03593
G1 X76.944 Y169.840 E3.01325
G1 X76.124 Y169.765 E0.02584
G1 X75.331 Y169.559 E0.02566
G1 X74.577 Y169.227 E0.02584
G1 X73.891 Y168.781 E0.02566
G1 X73.065 Y167.979 E0.03610
G1 X72.440 Y167.012 E0.03610
G1 X72.048 Y165.929 E0.03610
G1 X71.910 Y164.786 E0.03610
G1 X71.910 Y45.205 E3.74938
G1 X71.984 Y44.385 E0.02584
G1 X72.189 Y43.587 E0.02584
G1 X72.520 Y42.832 E0.02584
G1 X72.969 Y42.141 E0.02584
G1 X73.716 Y41.368 E0.03370
G1 F8640
G1 X74.708 Y40.705 E-0.27554
G1 X75.772 Y40.310 E-0.26202
G1 X76.727 Y40.183 E-0.22244
G1 E-0.04000 F2100.00000
G1 Z0.800 F10800.000
G1 X73.171 Y42.458
G1 Z0.200
G1 E0.80000 F2100.00000
G1 F1200
G1 X74.440 Y41.250 E0.05497
G1 X75.267 Y40.835 E0.02900
G1 X76.490 Y40.537 E0.03948
G1 X173.486 Y40.540 E3.04123
G1 X174.435 Y40.724 E0.03029
G1 X175.343 Y41.115 E0.03101
G1 X176.562 Y42.138 E0.04990
G1 X177.353 Y43.356 E0.04551
G1 X177.713 Y44.739 E0.04481
G1 X177.713 Y165.260 E3.77886
G1 X177.409 Y166.503 E0.04014
G1 X176.829 Y167.542 E0.03729
G1 X175.560 Y168.750 E0.05497
G1 X174.733 Y169.165 E0.02900
G1 X173.510 Y169.463 E0.03948
G1 X76.490 Y169.463 E3.04197
G1 X75.247 Y169.159 E0.04014
G1 X74.208 Y168.579 E0.03729
G1 X73.000 Y167.310 E0.05497
G1 X72.585 Y166.483 E0.02900
G1 X72.287 Y165.260 E0.03948
G1 X72.287 Y44.740 E3.77880
G1 X72.591 Y43.497 E0.04014
G1 X73.141 Y42.511 E0.03541
G1 X73.469 Y42.696 F10800.000
G1 F1200
G1 X74.636 Y41.573 E0.05078
G1 X75.380 Y41.195 E0.02616
G1 X76.514 Y40.914 E0.03664
G1 X173.467 Y40.917 E3.03991
G1 X174.341 Y41.090 E0.02791
G1 X175.166 Y41.449 E0.02823
G1 X176.297 Y42.408 E0.04647
G1 X176.996 Y43.482 E0.04018
G1 X177.336 Y44.763 E0.04157
G1 X177.336 Y165.236 E3.77734
M73 Q1 S84
M73 P1 R83
G1 X177.050 Y166.387 E0.03717
G1 X176.515 Y167.331 E0.03404
G1 X175.364 Y168.427 E0.04983
G1 X174.620 Y168.805 E0.02616
G1 X173.486 Y169.086 E0.03664
G1 X76.514 Y169.086 E3.04050
G1 X75.363 Y168.800 E0.03717
G1 X74.419 Y168.265 E0.03404
G1 X73.323 Y167.114 E0.04983
G1 X72.945 Y166.370 E0.02616
G1 X72.664 Y165.236 E0.03664
G1 X72.664 Y44.764 E3.77733
G1 X72.950 Y43.613 E0.03717
G1 X73.440 Y42.749 E0.03116
G1 X73.761 Y42.930 F10800.000
G1 F1200
G1 X74.834 Y41.895 E0.04673
G1 X75.494 Y41.555 E0.02329
G1 X76.538 Y41.291 E0.03376
G1 X173.448 Y41.294 E3.03856
G1 X174.246 Y41.455 E0.02550
G1 X174.988 Y41.783 E0.02545
G1 X176.030 Y42.676 E0.04302
G1 X176.663 Y43.660 E0.03669
G1 X176.959 Y44.788 E0.03655
G1 X176.959 Y165.212 E3.77584
G1 X176.691 Y166.269 E0.03419
G1 X176.234 Y167.079 E0.02915
G1 X175.166 Y168.105 E0.04642
G1 X174.506 Y168.445 E0.02329
G1 X173.462 Y168.709 E0.03376
G1 X76.538 Y168.709 E3.03901
G1 X75.481 Y168.441 E0.03419
G1 X74.671 Y167.984 E0.02915
G1 X73.645 Y166.916 E0.04642
G1 X73.305 Y166.256 E0.02329
G1 X73.041 Y165.212 E0.03376
G1 X73.041 Y44.788 E3.77583
G1 X73.309 Y43.731 E0.03419
G1 X73.732 Y42.982 E0.02695
G1 X74.058 Y43.170 F10800.000
G1 F1200
G1 X75.032 Y42.217 E0.04273
G1 X75.611 Y41.915 E0.02045
G1 X76.562 Y41.668 E0.03083
G1 X173.429 Y41.671 E3.03718
G1 X174.148 Y41.820 E0.02304
G1 X174.808 Y42.115 E0.02266
G1 X175.762 Y42.942 E0.03960
G1 X176.306 Y43.787 E0.03149
G1 X176.582 Y44.813 E0.03331
G1 X176.582 Y165.188 E3.77427
G1 X176.333 Y166.149 E0.03113
G1 X175.921 Y166.868 E0.02597
G1 X174.968 Y167.783 E0.04144
G1 X174.389 Y168.085 E0.02045
G1 X173.438 Y168.332 E0.03082
G1 X76.562 Y168.332 E3.03747
G1 X75.601 Y168.083 E0.03113
G1 X74.882 Y167.671 E0.02597
G1 X73.967 Y166.718 E0.04144
G1 X73.665 Y166.139 E0.02045
G1 X73.418 Y165.188 E0.03082
G1 X73.418 Y44.812 E3.77430
G1 X73.667 Y43.851 E0.03113
G1 X74.028 Y43.222 E0.02275
G1 F8640
G1 X75.032 Y42.217 E-0.32802
G1 X75.611 Y41.915 E-0.15063
G1 X76.562 Y41.668 E-0.22701
G1 X76.798 Y41.668 E-0.05434
G1 E-0.04000 F2100.00000
G1 Z0.800 F10800.000
G1 X75.233 Y42.537
G1 Z0.200
G1 E0.80000 F2100.00000
G1 F1200
G1 X75.729 Y42.273 E0.01763
G1 X76.587 Y42.045 E0.02783
G1 X173.410 Y42.048 E3.03579
M73 Q2 S83
M73 P2 R82
G1 X174.013 Y42.173 E0.01933
G1 X174.628 Y42.447 E0.02110
G1 X175.492 Y43.207 E0.03609
G1 X175.972 Y43.964 E0.02809
G1 X176.205 Y44.837 E0.02835
G1 X176.205 Y165.163 E3.77272
G1 X175.975 Y166.026 E0.02802
G1 X175.609 Y166.654 E0.02280
G1 X174.767 Y167.463 E0.03660
G1 X174.271 Y167.727 E0.01763
G1 X173.413 Y167.955 E0.02783
G1 X76.587 Y167.955 E3.03589
G1 X75.724 Y167.725 E0.02802
G1 X75.096 Y167.359 E0.02280
G1 X74.287 Y166.517 E0.03660
G1 X74.023 Y166.021 E0.01763
G1 X73.795 Y165.163 E0.02783
G1 X73.795 Y44.837 E3.77272
G1 X74.025 Y43.974 E0.02802
G1 X74.391 Y43.346 E0.02280
G1 X75.190 Y42.578 E0.03471
G1 X75.436 Y42.855 F10800.000
G1 F1200
G1 X75.851 Y42.630 E0.01479
G1 X76.613 Y42.422 E0.02477
G1 X173.389 Y42.426 E3.03434
G1 X173.914 Y42.537 E0.01681
G1 X174.445 Y42.778 E0.01829
G1 X175.222 Y43.471 E0.03263
G1 X175.616 Y44.091 E0.02306
G1 X175.828 Y44.863 E0.02510
G1 X175.828 Y165.137 E3.77110
G1 X175.618 Y165.902 E0.02489
G1 X175.327 Y166.402 E0.01815
G1 X174.564 Y167.145 E0.03339
G1 X174.149 Y167.370 E0.01479
G1 X173.387 Y167.578 E0.02477
G1 X76.613 Y167.578 E3.03427
G1 X75.848 Y167.368 E0.02489
G1 X75.348 Y167.077 E0.01815
G1 X74.605 Y166.314 E0.03339
G1 X74.380 Y165.899 E0.01479
G1 X74.172 Y165.137 E0.02477
G1 X74.172 Y44.863 E3.77109
G1 X74.382 Y44.098 E0.02489
G1 X74.673 Y43.598 E0.01815
G1 X75.393 Y42.897 E0.03151
G1 X75.642 Y43.172 F10800.000
G1 F1200
G1 X75.976 Y42.987 E0.01200
G1 X76.640 Y42.799 E0.02163
G1 X173.368 Y42.803 E3.03284
G1 X173.811 Y42.900 E0.01424
G1 X174.259 Y43.108 E0.01548
G1 X174.950 Y43.733 E0.02920
G1 X175.262 Y44.221 E0.01818
G1 X175.451 Y44.890 E0.02179
G1 X175.451 Y165.110 E3.76941
G1 X175.263 Y165.774 E0.02165
G1 X175.017 Y166.187 E0.01508
G1 X174.358 Y166.828 E0.02880
G1 X174.024 Y167.013 E0.01200
G1 X173.360 Y167.201 E0.02162
G1 X76.640 Y167.201 E3.03258
G1 X75.976 Y167.013 E0.02165
G1 X75.563 Y166.767 E0.01508
G1 X74.922 Y166.108 E0.02880
G1 X74.737 Y165.774 E0.01200
G1 X74.549 Y165.110 E0.02162
G1 X74.549 Y44.890 E3.76941
M73 Q3 S82
M73 P3 R81
G1 X74.737 Y44.226 E0.02165
G1 X74.983 Y43.813 E0.01508
G1 X75.599 Y43.214 E0.02692
G1 F8640
G1 X75.976 Y42.987 E-0.10177
G1 X76.640 Y42.799 E-0.15926
G1 X78.801 Y42.799 E-0.49897
G1 E-0.04000 F2100.00000
G1 Z0.800 F10800.000
G1 X76.668 Y43.176
G1 Z0.200
G1 E0.80000 F2100.00000
G1 F1200
G1 X173.346 Y43.180 E3.03126
G1 X173.705 Y43.263 E0.01157
G1 X174.071 Y43.435 E0.01268
G1 X174.676 Y43.993 E0.02580
G1 X174.908 Y44.355 E0.01347
G1 X175.074 Y44.918 E0.01841
G1 X175.074 Y165.082 E3.76765
G1 X174.908 Y165.644 E0.01838
G1 X174.734 Y165.936 E0.01066
G1 X174.149 Y166.513 E0.02578
G1 X173.894 Y166.659 E0.00919
G1 X173.332 Y166.824 E0.01838
G1 X76.668 Y166.824 E3.03083
G1 X76.106 Y166.658 E0.01838
G1 X75.814 Y166.484 E0.01066
G1 X75.237 Y165.899 E0.02578
G1 X75.091 Y165.644 E0.00919
G1 X74.926 Y165.082 E0.01838
G1 X74.926 Y44.918 E3.76765
G1 X75.092 Y44.356 E0.01838
G1 X75.266 Y44.064 E0.01066
G1 X75.851 Y43.487 E0.02578
G1 X76.106 Y43.341 E0.00919
G1 X76.611 Y43.193 E0.01650
G1 X76.698 Y43.553 F10800.000
G1 F1200
G1 X173.324 Y43.557 E3.02965
G1 X173.562 Y43.612 E0.00767
G1 X173.882 Y43.763 E0.01109
G1 X174.401 Y44.251 E0.02233
G1 X174.556 Y44.492 E0.00898
G1 X174.697 Y44.948 E0.01495
G1 X174.697 Y165.052 E3.76580
G1 X174.556 Y165.508 E0.01494
G1 X174.426 Y165.718 E0.00775
G1 X173.936 Y166.201 E0.02159
G1 X173.759 Y166.306 E0.00643
G1 X173.302 Y166.447 E0.01500
G1 X76.698 Y166.447 E3.02897
G1 X76.242 Y166.306 E0.01494
G1 X76.032 Y166.176 E0.00775
G1 X75.549 Y165.686 E0.02159
G1 X75.444 Y165.509 E0.00643
G1 X75.303 Y165.052 E0.01500
G1 X75.303 Y44.948 E3.76580
G1 X75.444 Y44.492 E0.01494
G1 X75.574 Y44.282 E0.00775
G1 X76.064 Y43.799 E0.02159
G1 X76.241 Y43.694 E0.00643
G1 X76.640 Y43.571 E0.01312
G1 X76.383 Y44.044 F10800.000
G1 F1200
G1 X76.729 Y43.930 E0.01144
G1 X173.302 Y43.934 E3.02796
G1 X173.419 Y43.961 E0.00377
G1 X173.692 Y44.090 E0.00947
G1 X174.123 Y44.507 E0.01880
G1 X174.207 Y44.635 E0.00479
G1 X174.320 Y44.979 E0.01136
G1 X174.320 Y165.021 E3.76381
G1 X174.206 Y165.367 E0.01144
G1 X174.144 Y165.467 E0.00369
G1 X173.717 Y165.894 E0.01893
G1 X173.617 Y165.956 E0.00369
G1 X173.271 Y166.070 E0.01144
G1 X76.729 Y166.070 E3.02699
M73 Q4 S81
M73 P4 R80
G1 X76.383 Y165.956 E0.01144
G1 X76.283 Y165.894 E0.00369
G1 X75.856 Y165.467 E0.01893
G1 X75.794 Y165.367 E0.00369
G1 X75.680 Y165.021 E0.01144
G1 X75.680 Y44.979 E3.76381
G1 X75.794 Y44.633 E0.01144
G1 X75.856 Y44.533 E0.00369
G1 X76.332 Y44.076 E0.02069
G1 X76.537 Y44.389 F10800.000
G1 F1200
G1 X76.764 Y44.307 E0.00757
G1 X173.250 Y44.307 E3.02523
G1 X173.500 Y44.417 E0.00856
G1 X173.843 Y44.760 E0.01522
G1 X173.943 Y45.014 E0.00856
G1 X173.943 Y164.986 E3.76161
G1 X173.843 Y165.240 E0.00856
G1 X173.490 Y165.593 E0.01566
G1 X173.236 Y165.693 E0.00856
G1 X76.764 Y165.693 E3.02479
G1 X76.510 Y165.593 E0.00856
G1 X76.157 Y165.240 E0.01566
G1 X76.057 Y164.986 E0.00856
G1 X76.057 Y45.014 E3.76161
G1 X76.157 Y44.760 E0.00856
G1 X76.491 Y44.426 E0.01480
G1 X76.737 Y44.713 F10800.000
G1 F1200
G1 X76.806 Y44.684 E0.00235
G1 X173.194 Y44.684 E3.02216
G1 X173.263 Y44.713 E0.00235
G1 X173.537 Y44.987 E0.01215
G1 X173.566 Y45.056 E0.00235
G1 X173.566 Y164.944 E3.75898
G1 X173.537 Y165.013 E0.00235
G1 X173.263 Y165.287 E0.01215
G1 X173.194 Y165.316 E0.00235
G1 X76.806 Y165.316 E3.02216
G1 X76.737 Y165.287 E0.00235
G1 X76.463 Y165.013 E0.01215
G1 X76.434 Y164.944 E0.00235
G1 X76.434 Y45.056 E3.75898
G1 X76.463 Y44.987 E0.00235
G1 X76.695 Y44.756 E0.01027
G1 X76.922 Y45.061 F10800.000
G1 F1200
G1 X173.078 Y45.061 E3.01491
G1 X173.189 Y45.172 E0.00490
G1 X173.189 Y164.828 E3.75174
M73 Q6 S80
M73 P6 R79
G1 X173.078 Y164.939 E0.00490
G1 X76.922 Y164.939 E3.01491
G1 X76.811 Y164.828 E0.00490
G1 X76.811 Y45.172 E3.75174
G1 X76.879 Y45.104 E0.00302
G1 X77.210 Y45.460 F10800.000
G1 F1200
G1 X172.790 Y45.460 E2.99684
G1 X172.790 Y164.540 E3.73367
G1 X77.210 Y164.540 E2.99684
G1 X77.210 Y45.520 E3.73179
G1 X77.592 Y45.577 F10800.000
G1 X77.587 Y45.837
G1 F1200
G1 X172.413 Y45.837 E2.97320
G1 X172.413 Y164.163 E3.71002
G1 X77.587 Y164.163 E2.97320
G1 X77.587 Y45.897 E3.70814
G1 F8640
G1 X80.879 Y45.895 E-0.76000
G1 E-0.04000 F2100.00000
G1 Z0.800 F10800.000
G1 X166.836 Y143.363
G1 Z0.200
G1 E0.80000 F2100.00000
G1 F1200
G1 X167.095 Y143.182 E0.00990
G1 X167.381 Y143.048 E0.00990
G1 X167.686 Y142.967 E0.00990
G1 X167.985 Y142.940 E0.00943
G1 X168.314 Y142.966 E0.01033
G1 X168.619 Y143.048 E0.00992
G1 X168.905 Y143.182 E0.00990
G1 X169.164 Y143.363 E0.00990
G1 X169.387 Y143.586 E0.00990
G1 X169.568 Y143.845 E0.00990
G1 X169.702 Y144.131 E0.00990
G1 X169.783 Y144.436 E0.00990
G1 X169.811 Y144.750 E0.00990
G1 X169.783 Y145.064 E0.00990
G1 X169.702 Y145.369 E0.00990
G1 X169.568 Y145.655 E0.00990
G1 X169.387 Y145.914 E0.00990
G1 X169.164 Y146.137 E0.00990
G1 X168.905 Y146.318 E0.00990
G1 X168.619 Y146.452 E0.00990
G1 X168.314 Y146.533 E0.00990
G1 X168.000 Y146.561 E0.00990
G1 X167.686 Y146.533 E0.00990
G1 X167.381 Y146.452 E0.00990
G1 X167.095 Y146.318 E0.00990
G1 X166.836 Y146.137 E0.00990
G1 X166.613 Y145.914 E0.00990
G1 X166.432 Y145.655 E0.00990
G1 X166.298 Y145.369 E0.00990
G1 X166.217 Y145.064 E0.00990
G1 X166.189 Y144.750 E0.00990
G1 X166.217 Y144.436 E0.00990
G1 X166.298 Y144.131 E0.00990
G1 X166.432 Y143.845 E0.00990
G1 X166.613 Y143.586 E0.00990
G1 X166.794 Y143.405 E0.00802
G1 X166.781 Y143.052 F10800.000
G1 X166.593 Y143.073
G1 F1200
G1 X166.905 Y142.854 E0.01196
G1 X167.251 Y142.693 E0.01197
G1 X167.620 Y142.594 E0.01197
G1 X167.984 Y142.562 E0.01145
G1 X168.378 Y142.593 E0.01240
G1 X168.749 Y142.693 E0.01204
G1 X169.095 Y142.854 E0.01197
G1 X169.407 Y143.073 E0.01196
G1 X169.677 Y143.343 E0.01197
G1 X169.896 Y143.655 E0.01196
G1 X170.057 Y144.001 E0.01197
G1 X170.156 Y144.370 E0.01197
G1 X170.189 Y144.750 E0.01197
G1 X170.156 Y145.130 E0.01197
G1 X170.057 Y145.499 E0.01197
G1 X169.896 Y145.845 E0.01197
G1 X169.677 Y146.157 E0.01196
G1 X169.407 Y146.427 E0.01197
G1 X169.095 Y146.646 E0.01196
G1 X168.749 Y146.807 E0.01197
G1 X168.380 Y146.906 E0.01197
G1 X168.000 Y146.939 E0.01197
G1 X167.620 Y146.906 E0.01197
G1 X167.251 Y146.807 E0.01197
G1 X166.905 Y146.646 E0.01197
G1 X166.593 Y146.427 E0.01196
G1 X166.323 Y146.157 E0.01197
G1 X166.104 Y145.845 E0.01196
G1 X165.943 Y145.499 E0.01197
G1 X165.844 Y145.130 E0.01197
G1 X165.811 Y144.750 E0.01197
G1 X165.844 Y144.370 E0.01197
G1 X165.943 Y144.001 E0.01197
G1 X166.104 Y143.655 E0.01197
G1 X166.323 Y143.343 E0.01196
G1 X166.550 Y143.115 E0.01008
G1 F8640
G1 X166.905 Y142.854 E-0.10179
G1 X167.251 Y142.693 E-0.08812
G1 X167.620 Y142.594 E-0.08812
G1 X167.984 Y142.562 E-0.08433
G1 X168.378 Y142.593 E-0.09129
G1 X168.749 Y142.693 E-0.08869
G1 X169.095 Y142.854 E-0.08812
G1 X169.407 Y143.073 E-0.08811
G1 X169.534 Y143.200 E-0.04143
G1 E-0.04000 F2100.00000
G1 Z0.800 F10800.000
G1 X168.000 Y116.561
G1 Z0.200
G1 E0.80000 F2100.00000
G1 F1200
G1 X167.686 Y116.533 E0.00990
G1 X167.381 Y116.452 E0.00990
G1 X167.095 Y116.318 E0.00990
G1 X166.836 Y116.137 E0.00990
G1 X166.613 Y115.914 E0.00990
G1 X166.432 Y115.655 E0.00990
G1 X166.298 Y115.369 E0.00990
G1 X166.217 Y115.064 E0.00990
G1 X166.189 Y114.750 E0.00990
G1 X166.217 Y114.436 E0.00990
G1 X166.298 Y114.131 E0.00990
G1 X166.432 Y113.845 E0.00990
G1 X166.613 Y113.586 E0.00990
G1 X166.836 Y113.363 E0.00990
G1 X167.095 Y113.182 E0.00990
G1 X167.381 Y113.048 E0.00990
G1 X167.686 Y112.967 E0.00990
G1 X167.985 Y112.940 E0.00943
G1 X168.314 Y112.966 E0.01033
G1 X168.619 Y113.048 E0.00992
G1 X168.905 Y113.182 E0.00990
G1 X169.164 Y113.363 E0.00990
G1 X169.387 Y113.586 E0.00990
G1 X169.568 Y113.845 E0.00990
G1 X169.702 Y114.131 E0.00990
G1 X169.783 Y114.436 E0.00990
G1 X169.811 Y114.750 E0.00990
G1 X169.783 Y115.064 E0.00990
G1 X169.702 Y115.369 E0.00990
G1 X169.568 Y115.655 E0.00990
G1 X169.387 Y115.914 E0.00990
G1 X169.164 Y116.137 E0.00990
G1 X168.905 Y116.318 E0.00990
G1 X168.619 Y116.452 E0.00990
G1 X168.314 Y116.533 E0.00990
G1 X168.060 Y116.556 E0.00802
G1 X167.842 Y116.834 F10800.000
G1 X168.000 Y116.939
G1 F1200
G1 X167.620 Y116.906 E0.01197
